Sources/FrostedUI/Resources/Icons.xcassets/dashedCircle16.imageset/dashed-circle-16.svg

<svg width="16" height="16" viewBox="0 0 16 16" fill="none" xmlns="http://www.w3.org/2000/svg" data-fui-icon="true">
  <path
    d="M9.56055 15.8467C9.05575 15.9465 8.5341 16 8 16C7.46557 16 6.94357 15.9466 6.43848 15.8467L6.72949 14.376C7.1391 14.457 7.56397 14.5 8 14.5C8.43602 14.5 8.8609 14.457 9.27051 14.376L9.56055 15.8467ZM2.59375 11.6104C3.06874 12.3198 3.68017 12.9313 4.38965 13.4062L3.55469 14.6514C2.68251 14.0673 1.93157 13.3166 1.34766 12.4443L2.59375 11.6104ZM14.0283 12.0273H14.0293L14.5332 12.3652L14.6514 12.4443C14.0673 13.3167 13.3167 14.0673 12.4443 14.6514L11.6104 13.4062C12.3198 12.9313 12.9313 12.3198 13.4062 11.6104L14.0283 12.0273ZM1.62402 6.72949C1.54299 7.1391 1.5 7.56397 1.5 8C1.5 8.43602 1.54299 8.8609 1.62402 9.27051L0.152344 9.56055C0.0525379 9.0558 0 8.53403 0 8C0 7.46563 0.052417 6.94351 0.152344 6.43848L1.62402 6.72949ZM15.8467 6.43848C15.9466 6.94357 16 7.46557 16 8C16 8.5341 15.9465 9.05575 15.8467 9.56055L14.376 9.27051C14.457 8.8609 14.5 8.43602 14.5 8C14.5 7.56397 14.457 7.1391 14.376 6.72949L15.8467 6.43848ZM3.97266 1.9707H3.97168L4.38965 2.59375C3.68017 3.06874 3.06874 3.68017 2.59375 4.38965L1.9707 3.97168V3.97266L1.34766 3.55469C1.93161 2.68254 2.68254 1.93161 3.55469 1.34766L3.97266 1.9707ZM12.4443 1.34766C13.3166 1.93157 14.0673 2.68251 14.6514 3.55469L14.0293 3.97266L14.0283 3.97168L13.4062 4.38965C12.9313 3.68017 12.3198 3.06874 11.6104 2.59375L12.4443 1.34766ZM8 0C8.53403 0 9.0558 0.0525379 9.56055 0.152344L9.27051 1.62402C8.8609 1.54299 8.43602 1.5 8 1.5C7.56397 1.5 7.1391 1.54299 6.72949 1.62402L6.43848 0.152344C6.94351 0.052417 7.46563 0 8 0Z"
    fill="currentColor"
  />
</svg>

<svg xmlns="http://www.w3.org/2000/svg" width="16" height="16" fill="none" data-fui-icon="true" viewBox="0 0 16 16"><path fill="currentColor" d="M9.56 15.847a8 8 0 0 1-3.122 0l.291-1.471a6.55 6.55 0 0 0 2.542 0zM2.595 11.61a6.55 6.55 0 0 0 1.796 1.796l-.835 1.245a8 8 0 0 1-2.207-2.207zm11.434.417h.001l.504.338.118.08a8 8 0 0 1-2.207 2.206l-.834-1.245a6.55 6.55 0 0 0 1.796-1.796zM1.624 6.73a6.5 6.5 0 0 0 0 2.542l-1.472.29a8 8 0 0 1 0-3.123zm14.223-.29a8 8 0 0 1 0 3.122l-1.471-.29a6.55 6.55 0 0 0 0-2.542zM3.973 1.97h-.001l.418.623A6.55 6.55 0 0 0 2.594 4.39l-.623-.418-.623-.417a8 8 0 0 1 2.207-2.207zm8.471-.623a8 8 0 0 1 2.207 2.207l-.622.418v-.001l-.623.418a6.55 6.55 0 0 0-1.796-1.796zM8 0q.803.002 1.56.152l-.29 1.472a6.5 6.5 0 0 0-2.54 0L6.437.152A8 8 0 0 1 8 0"/></svg>
